src/components/Intro/img/menu.svg

<svg width="80" height="80" viewBox="0 0 80 80" fill="none" xmlns="http://www.w3.org/2000/svg">
<rect x="1.53011" y="1.53011" width="76.9398" height="76.9398" rx="16.7967" stroke="white" stroke-opacity="0.12" stroke-width="1.08366"/>
<g clip-path="url(#clip0_2001_12210)">
<path d="M18.3262 24.8286C18.3262 21.2377 21.2372 18.3267 24.8281 18.3267H32.4137C36.0047 18.3267 38.9157 21.2377 38.9157 24.8286V32.4142C38.9157 36.0052 36.0047 38.9162 32.4137 38.9162H24.8281C21.2372 38.9162 18.3262 36.0052 18.3262 32.4142V24.8286Z" fill="#525252"/>
<path d="M41.083 24.8286C41.083 21.2377 43.9941 18.3267 47.585 18.3267H55.1706C58.7615 18.3267 61.6726 21.2377 61.6726 24.8286V32.4142C61.6726 36.0052 58.7615 38.9162 55.1706 38.9162H47.585C43.9941 38.9162 41.083 36.0052 41.083 32.4142V24.8286Z" fill="#525252"/>
<path d="M18.3262 47.5854C18.3262 43.9945 21.2372 41.0835 24.8281 41.0835H32.4137C36.0047 41.0835 38.9157 43.9945 38.9157 47.5854V55.1711C38.9157 58.762 36.0047 61.673 32.4137 61.673H24.8281C21.2372 61.673 18.3262 58.762 18.3262 55.1711V47.5854Z" fill="#525252"/>
<path d="M41.083 47.5854C41.083 43.9945 43.9941 41.0835 47.585 41.0835H55.1706C58.7615 41.0835 61.6726 43.9945 61.6726 47.5854V55.1711C61.6726 58.762 58.7615 61.673 55.1706 61.673H47.585C43.9941 61.673 41.083 58.762 41.083 55.1711V47.5854Z" fill="#525252"/>
</g>
<defs>
<clipPath id="clip0_2001_12210">
<rect width="47.681" height="47.681" fill="white" transform="translate(16.1592 16.1594)"/>
</clipPath>
</defs>
</svg>

<svg xmlns="http://www.w3.org/2000/svg" width="80" height="80" fill="none" xmlns:v="https://vecta.io/nano"><rect x="1.53" y="1.53" width="76.94" height="76.94" rx="16.797" stroke="#fff" stroke-opacity=".12" stroke-width="1.084"/><g clip-path="url(#A)" fill="#525252"><use href="#B"/><path d="M41.083 24.829c0-3.591 2.911-6.502 6.502-6.502h7.586c3.591 0 6.502 2.911 6.502 6.502v7.586c0 3.591-2.911 6.502-6.502 6.502h-7.586c-3.591 0-6.502-2.911-6.502-6.502v-7.586zM18.326 47.585c0-3.591 2.911-6.502 6.502-6.502h7.586c3.591 0 6.502 2.911 6.502 6.502v7.586c0 3.591-2.911 6.502-6.502 6.502h-7.586c-3.591 0-6.502-2.911-6.502-6.502v-7.586zm22.757 0c0-3.591 2.911-6.502 6.502-6.502h7.586c3.591 0 6.502 2.911 6.502 6.502v7.586c0 3.591-2.911 6.502-6.502 6.502h-7.586c-3.591 0-6.502-2.911-6.502-6.502v-7.586z"/></g><defs><clipPath id="A"><path fill="#fff" transform="translate(16.159 16.159)" d="M0 0h47.681v47.681H0z"/></clipPath><path id="B" d="M18.326 24.829c0-3.591 2.911-6.502 6.502-6.502h7.586c3.591 0 6.502 2.911 6.502 6.502v7.586c0 3.591-2.911 6.502-6.502 6.502h-7.586c-3.591 0-6.502-2.911-6.502-6.502v-7.586z"/></defs></svg>
